X:22
T:Mrs McLeod of Raasay
Z:Jack Campin, 2006, http://www.campin.me.uk/
M:C|
L:1/8
Q:1/2=112
K:A
A2a2 fefa|c2cB c2cB|A2a2 fefa|B2BA BdcB |
A2a2 fefa|c2cB c2ce|f2fg fefg|afec B2cB:|
ABcd ecBA|c2cB c2cB|ABcd ecBA|B2BA BdcB |
ABcd ecBA|c2cB c2ce|f2fg fefg|afec BdcB:|
